src/icons/svg/arrow-left.svg

<svg width="20" height="20" fill="none" xmlns="http://www.w3.org/2000/svg"><path d="M9.75 4.964c-.166.078-4.763 4.673-4.815 4.813a.754.754 0 0 0 0 .446c.052.14 4.649 4.735 4.815 4.813a.56.56 0 0 0 .5.001.508.508 0 0 0 .299-.312.546.546 0 0 0 0-.451c-.036-.086-.598-.671-1.825-1.899L6.95 10.6h7.669l.149-.075a.584.584 0 0 0 0-1.05l-.149-.075H6.95l1.774-1.775c1.227-1.228 1.789-1.813 1.825-1.899a.56.56 0 0 0-.012-.476.508.508 0 0 0-.312-.299.553.553 0 0 0-.475.013" fill-rule="evenodd" fill="#000"/></svg>

<svg width="20" height="20" viewBox="0 0 20 20" fill="none" xmlns="http://www.w3.org/2000/svg"><path d="M9.750 4.964 C 9.584 5.042,4.987 9.637,4.935 9.777 C 4.890 9.897,4.890 10.103,4.935 10.223 C 4.987 10.363,9.584 14.958,9.750 15.036 C 9.918 15.115,10.080 15.115,10.250 15.037 C 10.409 14.964,10.480 14.890,10.549 14.725 C 10.614 14.569,10.614 14.431,10.549 14.274 C 10.513 14.188,9.951 13.603,8.724 12.375 L 6.950 10.600 10.785 10.600 L 14.619 10.600 14.768 10.525 C 15.205 10.304,15.205 9.696,14.768 9.475 L 14.619 9.400 10.785 9.400 L 6.950 9.400 8.724 7.625 C 9.951 6.397,10.513 5.812,10.549 5.726 C 10.616 5.563,10.612 5.414,10.537 5.250 C 10.464 5.091,10.390 5.020,10.225 4.951 C 10.063 4.884,9.913 4.888,9.750 4.964 " stroke="none" fill-rule="evenodd" fill="black"></path></svg>
